packages/core/src/svgs/tokens/branded/BTG.svg

<svg width="24" height="24" viewBox="0 0 24 24" fill="none" xmlns="http://www.w3.org/2000/svg">
<path fill-rule="evenodd" clip-rule="evenodd" d="M11.9893 20.4375V18.6468H11.3437V20.4124C11.5569 20.4288 11.7724 20.4375 11.9893 20.4375ZM9.40616 20.0312V18.6468H6.80248C7.58217 19.258 8.46361 19.7266 9.40616 20.0312ZM5.37749 17.2288V16.4306H6.11624C6.11624 16.4306 8.24749 16.4163 8.24998 15.125C8.24807 15.0208 8.24807 14.9167 8.24998 14.8124V8.56251C8.26873 8.21502 7.90624 7.75002 7.54874 7.68377C7.19311 7.61251 6.97811 7.5719 6.60123 7.56627H5.37749V6.77128C4.19925 8.25914 3.55952 10.1022 3.5625 12.0001C3.5625 13.9751 4.24062 15.7913 5.37749 17.2288ZM6.80623 5.35003H9.49993V3.93878C8.52381 4.2417 7.611 4.71992 6.80623 5.35003ZM11.3749 3.58566V5.35003H11.9999V3.56253C11.7899 3.56253 11.5813 3.57002 11.3749 3.58566ZM20.4374 12.0001C20.4374 15.9969 17.6581 19.3449 13.9268 20.2163V18.6476H14.6799C17.4225 18.6476 19.4062 15.7744 18.8175 13.2393C18.5824 12.2244 17.6243 11.585 16.6574 11.3594C18.2725 10.5038 18.4512 7.87315 17.1362 6.68878C16.5313 6.05441 15.7788 5.70753 15.2462 5.5269C14.8062 5.37815 14.34 5.35003 13.8749 5.35003V3.76503C17.6874 4.60503 20.4374 7.96502 20.4374 12.0001ZM22 12.0001C22 17.5232 17.5231 22 11.9999 22C6.47687 22 2 17.5232 2 12.0001C2 6.4769 6.47687 2.00003 11.9999 2.00003C17.625 2.00003 22 6.4769 22 12.0001ZM11.9874 16.4338C11.77 16.4375 11.6138 16.4407 11.3749 16.4569V12.7318C11.6113 12.7356 11.7275 12.7351 11.9687 12.7318L12.2649 12.7256C13.1949 12.7075 14.1325 12.6888 14.9481 13.1737C15.7931 13.6437 15.9294 15.2606 15.0931 15.8056C14.2593 16.3869 13.2162 16.4087 12.2181 16.4287L12.1219 16.4306L11.9874 16.4338ZM11.3749 10.9375H11.5794C12.5187 10.9438 13.5044 10.9512 14.3094 10.4188C15.0887 9.91188 15.0419 8.61439 14.2344 8.16315C13.488 7.71502 12.6119 7.72377 11.7656 7.73189H11.7637C11.5919 7.73377 11.5438 7.7344 11.3749 7.73189V10.9375Z" fill="#EBA809"/>
</svg>

<svg xmlns="http://www.w3.org/2000/svg" width="24" height="24" fill="none" viewBox="0 0 24 24">
    <path fill="#EBA809" fill-rule="evenodd" d="M11.99 20.438v-1.791h-.646v1.765q.32.026.645.026m-2.584-.407v-1.384H6.802a8.4 8.4 0 0 0 2.604 1.384M5.377 17.23v-.798h.74s2.13-.015 2.133-1.306a9 9 0 0 1 0-.313v-6.25c.019-.347-.344-.812-.701-.878a4.5 4.5 0 0 0-.948-.118H5.377v-.795a8.4 8.4 0 0 0-1.814 5.23c0 1.974.678 3.79 1.814 5.228m1.43-11.88H9.5V3.939A8.4 8.4 0 0 0 6.806 5.35m4.568-1.764V5.35H12V3.563q-.316 0-.625.023M20.437 12a8.44 8.44 0 0 1-6.51 8.216v-1.568h.753c2.742 0 4.726-2.874 4.137-5.409-.235-1.015-1.193-1.654-2.16-1.88 1.616-.855 1.794-3.486.48-4.67-.606-.635-1.358-.981-1.89-1.162-.44-.149-.907-.177-1.372-.177V3.765c3.812.84 6.562 4.2 6.562 8.235M22 12c0 5.523-4.477 10-10 10S2 17.523 2 12 6.477 2 12 2c5.625 0 10 4.477 10 10m-10.013 4.434c-.217.003-.373.007-.612.023v-3.725c.236.004.352.003.594 0l.296-.006c.93-.019 1.867-.037 2.683.448.845.47.981 2.087.145 2.632-.834.58-1.877.603-2.875.623l-.096.002zm-.612-5.497h.204c.94.007 1.925.014 2.73-.518.78-.507.733-1.805-.075-2.256-.746-.448-1.622-.44-2.468-.431h-.002c-.172.002-.22.002-.39 0z" clip-rule="evenodd"/>
</svg>
